X: 18
T:Scale Patterns for Improvisation - Key of G
C:
N:Arranged by  Mike Stangeland
L:1/8
Q:1/4=250
M:4/4
K:G
z8 | "G major scale fi"G,A, B,C DE FG | AB cd ef ga | ba gf ed cB | AG FE DC B,A, | 
G,8 | "PATTERN 1 - ASCE"G,B, A,C B,D CE | DF EG FA GB | Ac Bd ce df | eg fa g4 | 
"PATTERN 1 - DESC"ab ga fg ef | de cd Bc AB | GA FG EF DE | CD B,C A,C B,A, | 
G,8 | "PATTERN 2 - ASCE"B,A, G,C B,A, DC | B,E DC FE DG | FE AG FB AG | cB Ad cB ed | 
cf ed gf ea | gf ba g4 | "PATTERN 2 - DESC"ga bf ga ef | gd ef cd eB | cd AB cG AB | 
FG AE FG DE | FC DE B,C DA, | B,C G,A, B,C B,A, | G,8 | "PATTERN 3 - ASCE"G,A, B,A, B,C B,C | 
DC DE FE FG | FG AG AB AB | cB cd cd ed | ef ef gf ga | ga ba g4 | "PATTERN 3 - DESC"ba ga gf gf | 
ef ed cd cB | cB AB AG AG | FG FE FE DE | DC DC B,C B,A, | B,A, G,A, G,4 | " PATTERN 4 - ASC"G,A, B,G, A,B, CA, | 
B,C DB, CD EC | DE FD EF GE | FG AF GA BG | AB cA Bc dB | cd ec de fd | ef ge fg af | 
ga bg ab gf | g6 ga | " PATTERN 4 - DEC"ba gb ag fa | gf eg fe df | ed ce dc Bd | 
cB Ac BA GB | AG FA GF EG | FE DF ED CE | DC B,D CB, A,C | B,A, G,B, A,G, A,B, | 
G,8 | " PATTERN 5 - ASC"G,B, A,G, A,C B,A, | B,D CB, CE DC | DF ED EG FE | FA GF GB AG | 
Ac BA Bd cB | ce dc df ed | eg fe fa gf | g8 | " PATTERN 5 - DES"bg ab af ga | 
ge fg fd ef | ec de dB cd | cA Bc BG AB | AF GA GE FG | FD EF EC DE | DB, CD CA, B,C | 
B,G, A,B, A,C B,A, | G,8 | " PATTERN 6 - ASC"A,G, B,A, B,A, CB, | CB, DC DC ED | 
ED FE FE GF | GF AG AG BA | BA cB cB dc | dc ed ed fe | fe gf gf ag | ag ba g4 | 
" PATTERN 6 - DEC"ag ba gf ag | fe gf ed fe | dc ed cB dc | BA cB AG BA | GF AG FE GF | 
ED FE DC ED | CB, DC B,A, CB, | A,G, B,A, G,4 | " PATTERN 7 - ASC"CA, B,G, DB, CA, | 
EC DB, FD EC | GE FD AF GE | BG AF cA BG | dB cA ec dB | fd ec ge fd | af ge bg af | 
g8 | " PATTERN 7 DESCE"bg af af ge | ge fd fd ec | ec dB dB cA | cA BG BG AF | 
AF GE GE FD | FD EC EC DB, | DB, CA, CA, B,G, | B,G, A,B, G,4 | "PATTERN 8 - ASCE"B,A, G,B, CB, A,C | 
DC B,D ED CE | FE DF GF EG | AG FA BA GB | cB Ac dc Bd | ed ce fe df | gf eg ag fa | 
ba gf g4 | "PATTERN 8 - DECS"ga bg fg af | ef ge de fd | cd ec Bc dB | AB cA GA BG | 
FG AF EF GE | DE FD CD EC | B,C DB, A,B, CA, | G,A, B,A, G,4 | " PATTERN 9 - ASC"CB, A,G, DC B,A, | 
ED CB, FE DC | GF ED AG FE | BA GF cB AG | dc BA ed cB | fe dc gf ed | g8 | "PATTERN 9 - DESC"ga bc' fg ab | 
ef ga de fg | cd ef Bc de | AB cd GA Bc | FG AB EF GA | DE FG CD EF | B,C DE A,B, CD | 
G,8 | " PATTERN 10 - AS"G,B, DB, A,C EC | B,D FD CE GE | DF AF EG BG | FA cA GB dB | 
Ac ec Bd fd | ce ge df af | eg bg fa c'a | g8 | " PATTERN 10 - DE"bg eg af df | 
ge ce fd Bd | ec Ac dB GB | cA FA BG EG | AF DF GE CE | FD B,D EC A,C | DB, G,B, CB, A,B, | 
G,8 | GD B,G, AF DA, | BG DB, cG EC | dA FD ec AF | fd AF gd BG | af df bg df | 
g8 | Bd gb Ac eg | GB dg FA df | EG ce DF Ad | CE Gc B,D GB | A,C EA G,B, DG | 
G,8 |

